FlatUX/src/svg/DOS-content.svg

<svg enable-background="new 0 0 256 256" viewBox="0 0 256 256" xmlns="http://www.w3.org/2000/svg"><path d="m128 94.857c-18.304 0-33.143 14.839-33.143 33.143s14.839 33.143 33.143 33.143 33.143-14.839 33.143-33.143-14.839-33.143-33.143-33.143zm0 8.286c13.728 0 24.857 11.129 24.857 24.857s-11.129 24.857-24.857 24.857-24.857-11.129-24.857-24.857 11.129-24.857 24.857-24.857z" fill="#bdc1c6"/><path d="m128 12c-64.065 0-116 51.935-116 116s51.935 116 116 116 116-51.935 116-116-51.935-116-116-116zm0 87c16.016 0 29 12.984 29 29s-12.984 29-29 29-29-12.984-29-29 12.984-29 29-29z" fill="#2b3e51"/><path d="m128 70c-32.033 0-58 25.967-58 58s25.967 58 58 58 58-25.967 58-58-25.967-58-58-58zm0 30c15.464 0 28 12.536 28 28s-12.536 28-28 28-28-12.536-28-28 12.536-28 28-28z" fill="#35495f"/><path d="m16.143 12c-2.295 0-4.143 1.848-4.143 4.143v223.714c0 2.295 1.848 4.143 4.143 4.143h79.857c0-2.288 1.712-4.143 4-4.143s4 1.855 4 4.143h48c0-2.288 1.712-4.143 4-4.143s4 1.855 4 4.143h79.857c2.295 0 4.143-1.848 4.143-4.143v-163.857h-4.143v-8h4.143v-51.857c0-2.295-1.848-4.143-4.143-4.143zm111.857 84c17.673 0 32 14.327 32 32s-14.327 32-32 32-32-14.327-32-32 14.327-32 32-32zm42 40.5c3.314 0 6 2.686 6 6s-2.686 6-6 6-6-2.686-6-6 2.686-6 6-6zm-42 43.5c6.648 0 12 5.352 12 12v32c0 6.648-5.352 12-12 12s-12-5.352-12-12v-32c0-6.648 5.352-12 12-12z" fill="#223140"/><path d="m24.154 20h207.692c2.294 0 4.154 1.791 4.154 4v48c0 2.209-1.86 4-4.154 4h-207.692c-2.294 0-4.154-1.791-4.154-4v-48c0-2.209 1.86-4 4.154-4z" fill="#1b80bb"/></svg>

<svg xmlns="http://www.w3.org/2000/svg" viewBox="0 0 256 256"><path fill="#bdc1c6" d="M128 94.857c-18.304 0-33.143 14.839-33.143 33.143s14.839 33.143 33.143 33.143 33.143-14.839 33.143-33.143S146.304 94.857 128 94.857m0 8.286c13.728 0 24.857 11.129 24.857 24.857S141.728 152.857 128 152.857 103.143 141.728 103.143 128s11.129-24.857 24.857-24.857"/><path fill="#2b3e51" d="M128 12C63.935 12 12 63.935 12 128s51.935 116 116 116 116-51.935 116-116S192.065 12 128 12m0 87c16.016 0 29 12.984 29 29s-12.984 29-29 29-29-12.984-29-29 12.984-29 29-29"/><path fill="#35495f" d="M128 70c-32.033 0-58 25.967-58 58s25.967 58 58 58 58-25.967 58-58-25.967-58-58-58m0 30c15.464 0 28 12.536 28 28s-12.536 28-28 28-28-12.536-28-28 12.536-28 28-28"/><path fill="#223140" d="M16.143 12A4.134 4.134 0 0 0 12 16.143v223.714A4.134 4.134 0 0 0 16.143 244H96c0-2.288 1.712-4.143 4-4.143s4 1.855 4 4.143h48c0-2.288 1.712-4.143 4-4.143s4 1.855 4 4.143h79.857a4.134 4.134 0 0 0 4.143-4.143V76h-4.143v-8H244V16.143A4.134 4.134 0 0 0 239.857 12zM128 96c17.673 0 32 14.327 32 32s-14.327 32-32 32-32-14.327-32-32 14.327-32 32-32m42 40.5a6 6 0 1 1 0 12 6 6 0 0 1 0-12M128 180c6.648 0 12 5.352 12 12v32c0 6.648-5.352 12-12 12s-12-5.352-12-12v-32c0-6.648 5.352-12 12-12"/><path fill="#1b80bb" d="M24.154 20h207.692c2.294 0 4.154 1.791 4.154 4v48c0 2.209-1.86 4-4.154 4H24.154C21.86 76 20 74.209 20 72V24c0-2.209 1.86-4 4.154-4"/></svg>
